src/assets/icon-github.svg

<svg xmlns="http://www.w3.org/2000/svg" width="16" height="15.556" preserveAspectRatio="xMidYMid" viewBox="0 0 125 121.531">
  <path d="M116.678 31.153c-5.595-9.587-13.184-17.177-22.77-22.772C84.319 2.786 73.852-.011 62.499-.011c-11.352 0-21.822 2.798-31.408 8.392-9.587 5.595-17.176 13.185-22.772 22.772C2.725 40.74-.073 51.209-.073 62.561c0 13.633 3.978 25.894 11.936 36.785 7.957 10.889 18.237 18.425 30.838 22.607 1.466.272 2.552.081 3.258-.568.706-.653 1.06-1.468 1.06-2.445 0-.163-.015-1.629-.041-4.399-.028-2.77-.042-5.187-.042-7.25l-1.874.324c-1.194.219-2.702.313-4.522.285a34.46 34.46 0 0 1-5.662-.57c-1.956-.351-3.775-1.166-5.459-2.441-1.683-1.278-2.878-2.949-3.584-5.012l-.815-1.875c-.542-1.248-1.397-2.634-2.565-4.154-1.168-1.521-2.35-2.553-3.544-3.096l-.571-.406c-.38-.273-.733-.6-1.059-.98-.325-.38-.57-.76-.733-1.141-.163-.379-.028-.693.408-.938.435-.245 1.221-.365 2.362-.365l1.629.244c1.087.217 2.43.868 4.033 1.955 1.602 1.086 2.919 2.498 3.952 4.235 1.25 2.228 2.755 3.925 4.522 5.093 1.764 1.168 3.544 1.751 5.336 1.751 1.792 0 3.339-.136 4.644-.407a16.183 16.183 0 0 0 3.666-1.222c.488-3.639 1.819-6.436 3.991-8.391-3.095-.326-5.879-.817-8.351-1.467-2.471-.652-5.024-1.711-7.658-3.18-2.635-1.466-4.821-3.286-6.559-5.458-1.737-2.173-3.164-5.024-4.276-8.554-1.114-3.532-1.67-7.605-1.67-12.222 0-6.573 2.146-12.167 6.437-16.784-2.011-4.942-1.821-10.482.569-16.619 1.576-.49 3.912-.123 7.007 1.099 3.096 1.222 5.364 2.269 6.804 3.137a71.907 71.907 0 0 1 3.462 2.2c5.053-1.412 10.267-2.118 15.643-2.118 5.377 0 10.592.706 15.646 2.118l3.096-1.955c2.117-1.304 4.617-2.499 7.494-3.585 2.879-1.086 5.08-1.385 6.6-.896 2.445 6.138 2.662 11.678.652 16.62 4.291 4.617 6.436 10.213 6.436 16.784 0 4.618-.557 8.704-1.67 12.262-1.114 3.558-2.551 6.409-4.317 8.554-1.766 2.146-3.966 3.952-6.6 5.418-2.634 1.468-5.187 2.527-7.659 3.179-2.471.651-5.255 1.141-8.35 1.467 2.824 2.444 4.236 6.3 4.236 11.569v17.189c0 .977.34 1.792 1.019 2.443.678.651 1.75.842 3.217.57 12.602-4.181 22.881-11.718 30.838-22.609 7.957-10.889 11.936-23.15 11.936-36.785-.002-11.349-2.801-21.817-8.395-31.404z" class="cls-1"/>
</svg>

<svg xmlns="http://www.w3.org/2000/svg" xmlns:xlink="http://www.w3.org/1999/xlink" preserveAspectRatio="xMidYMid" width="16" height="15.556" viewBox="0 0 125 121.531">
  <defs>
    <style>
      .cls-1 {
        fill: #fff;
        fill-rule: evenodd;
      }
    </style>
  </defs>
  <path d="M116.678,31.153 C111.083,21.566 103.494,13.976 93.908,8.381 C84.319,2.786 73.852,-0.011 62.499,-0.011 C51.147,-0.011 40.677,2.787 31.091,8.381 C21.504,13.976 13.915,21.566 8.319,31.153 C2.725,40.740 -0.073,51.209 -0.073,62.561 C-0.073,76.194 3.905,88.455 11.863,99.346 C19.820,110.235 30.100,117.771 42.701,121.953 C44.167,122.225 45.253,122.034 45.959,121.385 C46.665,120.732 47.019,119.917 47.019,118.940 C47.019,118.777 47.004,117.311 46.978,114.541 C46.950,111.771 46.936,109.354 46.936,107.291 L45.062,107.615 C43.868,107.834 42.360,107.928 40.540,107.900 C38.722,107.875 36.833,107.684 34.878,107.330 C32.922,106.979 31.103,106.164 29.419,104.889 C27.736,103.611 26.541,101.940 25.835,99.877 L25.020,98.002 C24.478,96.754 23.623,95.368 22.455,93.848 C21.287,92.327 20.105,91.295 18.911,90.752 L18.340,90.346 C17.960,90.073 17.607,89.746 17.281,89.366 C16.956,88.986 16.711,88.606 16.548,88.225 C16.385,87.846 16.520,87.532 16.956,87.287 C17.391,87.042 18.177,86.922 19.318,86.922 L20.947,87.166 C22.034,87.383 23.377,88.034 24.980,89.121 C26.582,90.207 27.899,91.619 28.932,93.356 C30.182,95.584 31.687,97.281 33.454,98.449 C35.218,99.617 36.998,100.200 38.790,100.200 C40.582,100.200 42.129,100.064 43.434,99.793 C44.736,99.522 45.958,99.114 47.100,98.571 C47.588,94.932 48.919,92.135 51.091,90.180 C47.996,89.854 45.212,89.363 42.740,88.713 C40.269,88.061 37.716,87.002 35.082,85.533 C32.447,84.067 30.261,82.247 28.523,80.075 C26.786,77.902 25.359,75.051 24.247,71.521 C23.133,67.989 22.577,63.916 22.577,59.299 C22.577,52.726 24.723,47.132 29.014,42.515 C27.003,37.573 27.193,32.033 29.583,25.896 C31.159,25.406 33.495,25.773 36.590,26.995 C39.686,28.217 41.954,29.264 43.394,30.132 C44.833,31.000 45.987,31.735 46.856,32.332 C51.909,30.920 57.123,30.214 62.499,30.214 C67.876,30.214 73.091,30.920 78.145,32.332 L81.241,30.377 C83.358,29.073 85.858,27.878 88.735,26.792 C91.614,25.706 93.815,25.407 95.335,25.896 C97.780,32.034 97.997,37.574 95.987,42.516 C100.278,47.133 102.423,52.729 102.423,59.300 C102.423,63.918 101.866,68.004 100.753,71.562 C99.639,75.120 98.202,77.971 96.436,80.116 C94.670,82.262 92.470,84.068 89.836,85.534 C87.202,87.002 84.649,88.061 82.177,88.713 C79.706,89.364 76.922,89.854 73.827,90.180 C76.651,92.624 78.063,96.480 78.063,101.749 L78.063,118.938 C78.063,119.915 78.403,120.730 79.082,121.381 C79.760,122.032 80.832,122.223 82.299,121.951 C94.901,117.770 105.180,110.233 113.137,99.342 C121.094,88.453 125.073,76.192 125.073,62.557 C125.071,51.208 122.272,40.740 116.678,31.153 Z" class="cls-1"/>
</svg>
